dist/svgs/team-flag.svg

<svg xmlns="http://www.w3.org/2000/svg" viewBox="0 0 512 512"><path d="M271 478q3 8 1 17.5T262 510q-5 2-12 2-12 0-20-11L14 125q-5-8-2-17t11-14q7-5 16-2.5T53 103zm225-291q4 8 3.5 16t-5.5 13q-32 29-65.5 35t-64.5 6h-23q-32 0-57 7.5T239 307q-3 6-9 9L103 98q14-21 30.5-33.5T167 46t35-7.5 35-1.5h25q26 0 50.5-5T360 7q3-5 8-6t10-1 9.5 3 6.5 6z"/></svg>

<?xml version="1.0" encoding="UTF-8" standalone="no"?><svg   xmlns:svg="http://www.w3.org/2000/svg"   xmlns="http://www.w3.org/2000/svg"   version="1.1"   width="512"   height="512"   viewBox="0 0 512 512">  <path     d="M271 478Q274 486 272 495.5T262 510Q257 512 250 512Q238 512 230 501L14 125Q9 117 12 108T23 94Q30 89 39 91.5T53 103zM496 187Q500 195 499.5 203T494 216Q462 245 428.5 251T364 257H341Q309 257 284 264.5T239 307Q236 313 230 316L103 98Q117 77 133.5 64.5T167 46T202 38.5T237 37H262Q288 37 312.5 32T360 7Q363 2 368 1T378 0T387.5 3T394 9z"     id="team-flag" /></svg>
